configs/network-logos/iota-evm-logo-dark.svg

<svg width="124" height="24" viewBox="0 0 124 24" fill="none" xmlns="http://www.w3.org/2000/svg">
<g clip-path="url(#clip0_11324_7574)">
<path fill-rule="evenodd" clip-rule="evenodd" d="M101.648 11.9999V4.15051H106.385V4.99371H102.598V7.64594H106.14V8.48914H102.598V11.1567H106.446V11.9999H101.648ZM108.744 4.15055L111.074 10.7582H111.166L113.496 4.15055H114.493L111.611 12H110.63L107.747 4.15055H108.744ZM117.174 4.15055H116.039V12H116.928V6.03627H117.005L119.458 12H120.316L122.77 6.03627H122.846V12H123.735V4.15055H122.601L119.934 10.6662H119.842L117.174 4.15055Z" fill="white"/>
<path fill-rule="evenodd" clip-rule="evenodd" d="M20.1562 1.43897C20.1562 2.23366 19.5103 2.87794 18.7135 2.87794C17.9168 2.87794 17.2708 2.23366 17.2708 1.43897C17.2708 0.644229 17.9168 0 18.7135 0C19.5103 0 20.1562 0.644229 20.1562 1.43897ZM21.7793 21.7647C21.7793 22.5594 21.1334 23.2036 20.3366 23.2036C19.5398 23.2036 18.8939 22.5594 18.8939 21.7647C18.8939 20.9699 19.5398 20.3257 20.3366 20.3257C21.1334 20.3257 21.7793 20.9699 21.7793 21.7647ZM19.1261 6.47549C19.7947 6.47549 20.3369 5.93474 20.3369 5.26777C20.3369 4.60074 19.7947 4.06006 19.1261 4.06006C18.4573 4.06006 17.9152 4.60074 17.9152 5.26777C17.9152 5.93474 18.4573 6.47549 19.1261 6.47549ZM23.5572 5.73017C23.5572 6.39715 23.0151 6.93789 22.3464 6.93789C21.6777 6.93789 21.1356 6.39715 21.1356 5.73017C21.1356 5.06315 21.6777 4.52246 22.3464 4.52246C23.0151 4.52246 23.5572 5.06315 23.5572 5.73017ZM18.7137 9.5332C19.2829 9.5332 19.7442 9.07302 19.7442 8.50537C19.7442 7.93771 19.2829 7.47754 18.7137 7.47754C18.1446 7.47754 17.6833 7.93771 17.6833 8.50537C17.6833 9.07302 18.1446 9.5332 18.7137 9.5332ZM22.9646 8.94238C22.9646 9.51004 22.5033 9.97021 21.9341 9.97021C21.365 9.97021 20.9036 9.51004 20.9036 8.94238C20.9036 8.37472 21.365 7.91455 21.9341 7.91455C22.5033 7.91455 22.9646 8.37472 22.9646 8.94238ZM24.5103 10.9722C25.0794 10.9722 25.5408 10.512 25.5408 9.94433C25.5408 9.37667 25.0794 8.9165 24.5103 8.9165C23.9412 8.9165 23.4798 9.37667 23.4798 9.94433C23.4798 10.512 23.9412 10.9722 24.5103 10.9722ZM21.8823 11.5376C21.8823 12.0342 21.4786 12.4369 20.9806 12.4369C20.4826 12.4369 20.0789 12.0342 20.0789 11.5376C20.0789 11.0408 20.4826 10.6382 20.9806 10.6382C21.4786 10.6382 21.8823 11.0408 21.8823 11.5376ZM17.7607 11.9999C18.2587 11.9999 18.6624 11.5972 18.6624 11.1005C18.6624 10.6039 18.2587 10.2012 17.7607 10.2012C17.2627 10.2012 16.859 10.6039 16.859 11.1005C16.859 11.5972 17.2627 11.9999 17.7607 11.9999ZM24.4844 12.5395C24.4844 13.0362 24.0806 13.4389 23.5827 13.4389C23.0847 13.4389 22.681 13.0362 22.681 12.5395C22.681 12.0428 23.0847 11.6401 23.5827 11.6401C24.0806 11.6401 24.4844 12.0428 24.4844 12.5395ZM19.6928 14.3124C20.1196 14.3124 20.4656 13.9673 20.4656 13.5416C20.4656 13.1158 20.1196 12.7707 19.6928 12.7707C19.2659 12.7707 18.9199 13.1158 18.9199 13.5416C18.9199 13.9673 19.2659 14.3124 19.6928 14.3124ZM23.0677 14.5181C23.0677 14.9439 22.7217 15.289 22.2948 15.289C21.868 15.289 21.522 14.9439 21.522 14.5181C21.522 14.0924 21.868 13.7472 22.2948 13.7472C22.7217 13.7472 23.0677 14.0924 23.0677 14.5181ZM16.498 13.8498C16.9248 13.8498 17.2709 13.5047 17.2709 13.079C17.2709 12.6532 16.9248 12.3081 16.498 12.3081C16.0712 12.3081 15.7251 12.6532 15.7251 13.079C15.7251 13.5047 16.0712 13.8498 16.498 13.8498ZM18.9198 14.9293C18.9198 15.2841 18.6314 15.5717 18.2757 15.5717C17.92 15.5717 17.6317 15.2841 17.6317 14.9293C17.6317 14.5745 17.92 14.2869 18.2757 14.2869C18.6314 14.2869 18.9198 14.5745 18.9198 14.9293ZM19.3833 17.3447C19.6963 17.3447 19.9501 17.0916 19.9501 16.7793C19.9501 16.4672 19.6963 16.214 19.3833 16.214C19.0703 16.214 18.8166 16.4672 18.8166 16.7793C18.8166 17.0916 19.0703 17.3447 19.3833 17.3447ZM18.4818 17.2421C18.4818 17.4976 18.2742 17.7047 18.0181 17.7047C17.762 17.7047 17.5544 17.4976 17.5544 17.2421C17.5544 16.9867 17.762 16.7796 18.0181 16.7796C18.2742 16.7796 18.4818 16.9867 18.4818 17.2421ZM16.8071 16.3683C17.1202 16.3683 17.3739 16.1151 17.3739 15.8029C17.3739 15.4907 17.1202 15.2376 16.8071 15.2376C16.4942 15.2376 16.2404 15.4907 16.2404 15.8029C16.2404 16.1151 16.4942 16.3683 16.8071 16.3683ZM15.6996 14.4925C15.6996 14.8473 15.4112 15.1349 15.0555 15.1349C14.6998 15.1349 14.4115 14.8473 14.4115 14.4925C14.4115 14.1377 14.6998 13.8501 15.0555 13.8501C15.4112 13.8501 15.6996 14.1377 15.6996 14.4925ZM15.0296 10.3038C15.3853 10.3038 15.6737 10.0162 15.6737 9.66144C15.6737 9.30664 15.3853 9.01904 15.0296 9.01904C14.6739 9.01904 14.3856 9.30664 14.3856 9.66144C14.3856 10.0162 14.6739 10.3038 15.0296 10.3038ZM15.8798 7.47742C15.8798 7.7896 15.6261 8.04268 15.3131 8.04268C15 8.04268 14.7463 7.7896 14.7463 7.47742C14.7463 7.16519 15 6.91211 15.3131 6.91211C15.6261 6.91211 15.8798 7.16519 15.8798 7.47742ZM15.9313 6.19266C16.1874 6.19266 16.395 5.98558 16.395 5.73015C16.395 5.47466 16.1874 5.26758 15.9313 5.26758C15.6752 5.26758 15.4676 5.47466 15.4676 5.73015C15.4676 5.98558 15.6752 6.19266 15.9313 6.19266ZM15.4161 4.75379C15.4161 5.06602 15.1623 5.31911 14.8494 5.31911C14.5363 5.31911 14.2826 5.06602 14.2826 4.75379C14.2826 4.44162 14.5363 4.18848 14.8494 4.18848C15.1623 4.18848 15.4161 4.44162 15.4161 4.75379ZM20.8519 16.548C21.2076 16.548 21.496 16.2604 21.496 15.9056C21.496 15.5508 21.2076 15.2632 20.8519 15.2632C20.4962 15.2632 20.2078 15.5508 20.2078 15.9056C20.2078 16.2604 20.4962 16.548 20.8519 16.548ZM14.0249 3.93146C14.0249 4.28621 13.7366 4.57381 13.3809 4.57381C13.0252 4.57381 12.7368 4.28621 12.7368 3.93146C12.7368 3.57666 13.0252 3.28906 13.3809 3.28906C13.7366 3.28906 14.0249 3.57666 14.0249 3.93146ZM13.819 7.29766C14.1747 7.29766 14.4631 7.01 14.4631 6.65526C14.4631 6.30046 14.1747 6.01286 13.819 6.01286C13.4633 6.01286 13.175 6.30046 13.175 6.65526C13.175 7.01 13.4633 7.29766 13.819 7.29766ZM13.8707 9.12193C13.8707 9.5477 13.5247 9.89279 13.0979 9.89279C12.671 9.89279 12.325 9.5477 12.325 9.12193C12.325 8.69622 12.671 8.35107 13.0979 8.35107C13.5247 8.35107 13.8707 8.69622 13.8707 9.12193ZM10.7532 9.89266C11.2512 9.89266 11.6549 9.48997 11.6549 8.99329C11.6549 8.4966 11.2512 8.09391 10.7532 8.09391C10.2553 8.09391 9.85156 8.4966 9.85156 8.99329C9.85156 9.48997 10.2553 9.89266 10.7532 9.89266ZM9.05316 9.48193C9.05316 10.0496 8.59179 10.5098 8.02264 10.5098C7.45356 10.5098 6.99219 10.0496 6.99219 9.48193C6.99219 8.91427 7.45356 8.4541 8.02264 8.4541C8.59179 8.4541 9.05316 8.91427 9.05316 9.48193ZM5.03421 11.9745C5.70295 11.9745 6.24506 11.4338 6.24506 10.7668C6.24506 10.0998 5.70295 9.55908 5.03421 9.55908C4.36552 9.55908 3.82341 10.0998 3.82341 10.7668C3.82341 11.4338 4.36552 11.9745 5.03421 11.9745ZM3.38531 13.0021C3.38531 13.7968 2.73943 14.441 1.94263 14.441C1.14589 14.441 0.5 13.7968 0.5 13.0021C0.5 12.2074 1.14589 11.5632 1.94263 11.5632C2.73943 11.5632 3.38531 12.2074 3.38531 13.0021ZM3.82343 8.96784C4.49217 8.96784 5.03423 8.42709 5.03423 7.76012C5.03423 7.09309 4.49217 6.55241 3.82343 6.55241C3.15469 6.55241 2.61263 7.09309 2.61263 7.76012C2.61263 8.42709 3.15469 8.96784 3.82343 8.96784ZM7.8419 6.47526C7.8419 7.04291 7.38053 7.50309 6.81138 7.50309C6.2423 7.50309 5.78092 7.04291 5.78092 6.47526C5.78092 5.9076 6.2423 5.44743 6.81138 5.44743C7.38053 5.44743 7.8419 5.9076 7.8419 6.47526ZM6.37361 4.77929C6.94276 4.77929 7.40407 4.31912 7.40407 3.75146C7.40407 3.1838 6.94276 2.72363 6.37361 2.72363C5.80447 2.72363 5.3431 3.1838 5.3431 3.75146C5.3431 4.31912 5.80447 4.77929 6.37361 4.77929ZM10.0061 3.2633C10.0061 3.75999 9.60246 4.16267 9.10446 4.16267C8.60646 4.16267 8.2028 3.75999 8.2028 3.2633C8.2028 2.76662 8.60646 2.36393 9.10446 2.36393C9.60246 2.36393 10.0061 2.76662 10.0061 3.2633ZM11.4486 4.16264C11.8755 4.16264 12.2215 3.8175 12.2215 3.39179C12.2215 2.96607 11.8755 2.62093 11.4486 2.62093C11.0218 2.62093 10.6758 2.96607 10.6758 3.39179C10.6758 3.8175 11.0218 4.16264 11.4486 4.16264ZM12.6595 6.11526C12.6595 6.54103 12.3135 6.88612 11.8866 6.88612C11.4598 6.88612 11.1138 6.54103 11.1138 6.11526C11.1138 5.68954 11.4598 5.3444 11.8866 5.3444C12.3135 5.3444 12.6595 5.68954 12.6595 6.11526ZM9.54245 6.91213C10.0404 6.91213 10.4441 6.5095 10.4441 6.01281C10.4441 5.51613 10.0404 5.11344 9.54245 5.11344C9.04445 5.11344 8.64079 5.51613 8.64079 6.01281C8.64079 6.5095 9.04445 6.91213 9.54245 6.91213ZM7.45559 13.2846C7.45559 13.5401 7.24799 13.7472 6.99187 13.7472C6.73576 13.7472 6.52816 13.5401 6.52816 13.2846C6.52816 13.0292 6.73576 12.8221 6.99187 12.8221C7.24799 12.8221 7.45559 13.0292 7.45559 13.2846ZM8.84691 13.516C9.15994 13.516 9.41365 13.2629 9.41365 12.9507C9.41365 12.6385 9.15994 12.3854 8.84691 12.3854C8.53388 12.3854 8.28011 12.6385 8.28011 12.9507C8.28011 13.2629 8.53388 13.516 8.84691 13.516ZM11.526 12.103C11.526 12.4578 11.2377 12.7454 10.882 12.7454C10.5263 12.7454 10.238 12.4578 10.238 12.103C10.238 11.7482 10.5263 11.4606 10.882 11.4606C11.2377 11.4606 11.526 11.7482 11.526 12.103ZM11.3713 14.8007C11.7981 14.8007 12.1442 14.4556 12.1442 14.0299C12.1442 13.6041 11.7981 13.259 11.3713 13.259C10.9445 13.259 10.5985 13.6041 10.5985 14.0299C10.5985 14.4556 10.9445 14.8007 11.3713 14.8007ZM9.54251 14.6465C9.54251 15.0012 9.25416 15.2889 8.89845 15.2889C8.54274 15.2889 8.25439 15.0012 8.25439 14.6465C8.25439 14.2917 8.54274 14.0041 8.89845 14.0041C9.25416 14.0041 9.54251 14.2917 9.54251 14.6465ZM6.70851 15.2631C7.02154 15.2631 7.27531 15.01 7.27531 14.6978C7.27531 14.3856 7.02154 14.1325 6.70851 14.1325C6.39554 14.1325 6.14176 14.3856 6.14176 14.6978C6.14176 15.01 6.39554 15.2631 6.70851 15.2631ZM7.37812 16.3939C7.37812 16.7487 7.08978 17.0363 6.73406 17.0363C6.37835 17.0363 6.09001 16.7487 6.09001 16.3939C6.09001 16.0391 6.37835 15.7515 6.73406 15.7515C7.08978 15.7515 7.37812 16.0391 7.37812 16.3939ZM9.36205 17.3703C9.78891 17.3703 10.1349 17.0252 10.1349 16.5995C10.1349 16.1738 9.78891 15.8286 9.36205 15.8286C8.93519 15.8286 8.58919 16.1738 8.58919 16.5995C8.58919 17.0252 8.93519 17.3703 9.36205 17.3703ZM13.3296 16.137C13.3296 16.6337 12.9259 17.0363 12.4279 17.0363C11.9299 17.0363 11.5262 16.6337 11.5262 16.137C11.5262 15.6403 11.9299 15.2376 12.4279 15.2376C12.9259 15.2376 13.3296 15.6403 13.3296 16.137ZM14.231 19.2717C14.8001 19.2717 15.2615 18.8115 15.2615 18.2438C15.2615 17.6762 14.8001 17.216 14.231 17.216C13.6619 17.216 13.2005 17.6762 13.2005 18.2438C13.2005 18.8115 13.6619 19.2717 14.231 19.2717ZM11.3457 18.6809C11.3457 19.1776 10.942 19.5803 10.444 19.5803C9.94603 19.5803 9.54232 19.1776 9.54232 18.6809C9.54232 18.1842 9.94603 17.7816 10.444 17.7816C10.942 17.7816 11.3457 18.1842 11.3457 18.6809ZM8.30569 21.3273C8.80363 21.3273 9.20734 20.9247 9.20734 20.428C9.20734 19.9313 8.80363 19.5286 8.30569 19.5286C7.80768 19.5286 7.40397 19.9313 7.40397 20.428C7.40397 20.9247 7.80768 21.3273 8.30569 21.3273ZM11.1137 22.561C11.1137 23.1287 10.6523 23.5889 10.0832 23.5889C9.5141 23.5889 9.05273 23.1287 9.05273 22.561C9.05273 21.9934 9.5141 21.5332 10.0832 21.5332C10.6523 21.5332 11.1137 21.9934 11.1137 22.561ZM14.8238 24C15.4925 24 16.0346 23.4593 16.0346 22.7923C16.0346 22.1253 15.4925 21.5846 14.8238 21.5846C14.1551 21.5846 13.613 22.1253 13.613 22.7923C13.613 23.4593 14.1551 24 14.8238 24ZM13.2521 20.8135C13.2521 21.3811 12.7907 21.8413 12.2215 21.8413C11.6525 21.8413 11.1911 21.3811 11.1911 20.8135C11.1911 20.2458 11.6525 19.7856 12.2215 19.7856C12.7907 19.7856 13.2521 20.2458 13.2521 20.8135ZM16.8074 21.4305C17.4761 21.4305 18.0182 20.8898 18.0182 20.2228C18.0182 19.5558 17.4761 19.0151 16.8074 19.0151C16.1386 19.0151 15.5965 19.5558 15.5965 20.2228C15.5965 20.8898 16.1386 21.4305 16.8074 21.4305ZM7.99656 18.3469C7.99656 18.7726 7.65056 19.1177 7.2237 19.1177C6.7969 19.1177 6.45085 18.7726 6.45085 18.3469C6.45085 17.9211 6.7969 17.576 7.2237 17.576C7.65056 17.576 7.99656 17.9211 7.99656 18.3469Z" fill="white"/>
<path fill-rule="evenodd" clip-rule="evenodd" d="M51.2204 4C46.9375 4 43.2958 7.68046 43.2958 12.0262C43.2958 16.3994 46.9626 20.0773 51.2204 20.0524C55.5032 20.0524 59.1181 16.3994 59.1181 12.0262C59.1181 7.65303 55.5284 4 51.2204 4ZM51.2204 5.64709C54.5546 5.64709 57.3489 8.58 57.3489 12.0262C57.3489 15.4998 54.5546 18.4302 51.2204 18.4302C47.8866 18.4302 45.0672 15.4998 45.0672 12.0262C45.0672 8.58 47.8866 5.64709 51.2204 5.64709ZM35.8334 4.28402H37.6022V19.7932H35.8334V4.28402ZM68.1953 5.95602H62.9908V4.28402H75.1462V5.95602H69.9393V19.7932H68.1708L68.1953 5.95602ZM78.5546 19.7932L84.4271 6.44442L90.25 19.7932H92.1729L85.7363 5.15865C85.5054 4.6179 84.9911 4.28402 84.4026 4.28402C83.8386 4.28402 83.2991 4.6179 83.0683 5.15865L76.6317 19.7932H78.5546Z" fill="white"/>
</g>
<defs>
<clipPath id="clip0_11324_7574">
<rect width="124" height="24" fill="white"/>
</clipPath>
</defs>
</svg>

<svg xmlns="http://www.w3.org/2000/svg" fill="none" viewBox="0 0 124 24">
  <g fill="#fff" fill-rule="evenodd" clip-path="url(#iota-evm-logo-dark_svg__a)" clip-rule="evenodd">
    <path d="M101.648 12V4.15h4.737v.844h-3.787v2.652h3.542v.843h-3.542v2.668h3.848V12h-4.798Zm7.096-7.85 2.33 6.608h.092l2.33-6.607h.997L111.611 12h-.981l-2.883-7.85h.997Zm8.43 0h-1.135V12h.889V6.036h.077L119.458 12h.858l2.454-5.964h.076V12h.889V4.15h-1.134l-2.667 6.516h-.092l-2.668-6.515ZM20.156 1.439a1.44 1.44 0 0 1-1.442 1.439 1.44 1.44 0 0 1-1.443-1.439A1.44 1.44 0 0 1 18.713 0a1.44 1.44 0 0 1 1.443 1.439Zm1.623 20.326a1.44 1.44 0 0 1-1.442 1.439 1.44 1.44 0 0 1-1.443-1.44 1.44 1.44 0 0 1 1.443-1.438 1.44 1.44 0 0 1 1.442 1.439Zm-2.653-15.29c.669 0 1.21-.54 1.21-1.207a1.21 1.21 0 0 0-1.21-1.208c-.669 0-1.21.54-1.21 1.208a1.21 1.21 0 0 0 1.21 1.207Zm4.431-.745a1.21 1.21 0 0 1-1.21 1.208 1.21 1.21 0 0 1-1.211-1.208 1.21 1.21 0 0 1 1.21-1.208c.67 0 1.211.541 1.211 1.208Zm-4.843 3.803a1.03 1.03 0 1 0 0-2.056 1.03 1.03 0 1 0 0 2.056Zm4.25-.59a1.03 1.03 0 0 1-1.03 1.027c-.569 0-1.03-.46-1.03-1.028a1.03 1.03 0 0 1 1.03-1.027c.57 0 1.03.46 1.03 1.027Zm1.546 2.03a1.03 1.03 0 1 0 0-2.056c-.569 0-1.03.46-1.03 1.027a1.03 1.03 0 0 0 1.03 1.028Zm-2.628.565a.9.9 0 0 1-.901.899.9.9 0 1 1 .901-.9ZM17.761 12a.9.9 0 1 0-.902-.9.9.9 0 0 0 .902.9Zm6.723.54a.9.9 0 1 1-1.8-.003.9.9 0 0 1 1.8.002Zm-4.791 1.772a.772.772 0 1 0 .002-1.543.772.772 0 0 0-.002 1.543Zm3.375.206a.772.772 0 1 1-1.544-.002.772.772 0 0 1 1.544.002Zm-6.57-.668a.772.772 0 1 0 .002-1.544.772.772 0 0 0-.002 1.544Zm2.422 1.08a.643.643 0 1 1-1.287-.002.643.643 0 0 1 1.287.001Zm.463 2.415a.566.566 0 1 0 .002-1.132.566.566 0 0 0-.002 1.132Zm-.901-.103a.463.463 0 1 1-.926-.001.463.463 0 0 1 .926.001Zm-1.675-.874a.566.566 0 1 0 .002-1.132.566.566 0 0 0-.002 1.132ZM15.7 14.493a.643.643 0 1 1-1.287-.002.643.643 0 0 1 1.287.002Zm-.67-4.19a.643.643 0 1 0 .001-1.286.643.643 0 0 0-.001 1.287Zm.85-2.826a.566.566 0 1 1-1.132-.001.566.566 0 0 1 1.132.001Zm.051-1.284a.463.463 0 1 0 .001-.927.463.463 0 0 0 0 .927Zm-.515-1.44a.566.566 0 1 1-1.132 0 .566.566 0 0 1 1.132 0Zm5.436 11.795a.643.643 0 1 0 .002-1.287.643.643 0 0 0-.002 1.287ZM14.025 3.931a.643.643 0 1 1-1.286-.001.643.643 0 0 1 1.286.001Zm-.206 3.367a.643.643 0 1 0 .002-1.287.643.643 0 0 0-.002 1.287Zm.052 1.824a.772.772 0 1 1-1.544-.002.772.772 0 0 1 1.544.002Zm-3.118.77a.9.9 0 1 0 .002-1.8.9.9 0 0 0-.002 1.8Zm-1.7-.41a1.03 1.03 0 0 1-1.03 1.028 1.03 1.03 0 1 1 0-2.056c.569 0 1.03.46 1.03 1.028Zm-4.019 2.493a1.21 1.21 0 0 0 1.211-1.208 1.21 1.21 0 0 0-1.21-1.208c-.67 0-1.212.54-1.212 1.208a1.21 1.21 0 0 0 1.211 1.208Zm-1.649 1.027a1.44 1.44 0 0 1-1.442 1.439A1.44 1.44 0 0 1 .5 13.002a1.44 1.44 0 0 1 1.443-1.439 1.44 1.44 0 0 1 1.442 1.44Zm.438-4.034c.67 0 1.211-.54 1.211-1.208a1.21 1.21 0 0 0-1.21-1.208c-.67 0-1.211.541-1.211 1.208a1.21 1.21 0 0 0 1.21 1.208Zm4.019-2.493a1.03 1.03 0 0 1-1.03 1.028 1.03 1.03 0 1 1 0-2.056c.569 0 1.03.46 1.03 1.028ZM6.374 4.78a1.03 1.03 0 1 0 0-2.056c-.57 0-1.03.46-1.03 1.028a1.03 1.03 0 0 0 1.03 1.028Zm3.632-1.516a.9.9 0 0 1-.902.9.9.9 0 1 1 .902-.9Zm1.443.9a.772.772 0 1 0 .002-1.544.772.772 0 0 0-.002 1.544Zm1.21 1.952a.772.772 0 1 1-1.543-.002.772.772 0 0 1 1.543.002Zm-3.117.797a.9.9 0 1 0-.901-.9.9.9 0 0 0 .901.9Zm-2.086 6.373a.463.463 0 1 1-.927-.001.463.463 0 0 1 .927 0Zm1.39.231a.566.566 0 1 0 .002-1.132.566.566 0 0 0-.001 1.132Zm2.68-1.413a.643.643 0 1 1-1.286-.002.643.643 0 0 1 1.286.002Zm-.155 2.698a.772.772 0 1 0 .002-1.544.772.772 0 0 0-.002 1.544Zm-1.828-.155a.643.643 0 1 1-1.287-.001.643.643 0 0 1 1.287.002Zm-2.834.617a.566.566 0 1 0 .001-1.132.566.566 0 0 0-.001 1.132Zm.67 1.13a.643.643 0 1 1-1.287 0 .643.643 0 0 1 1.286 0Zm1.983.977a.772.772 0 1 0 .002-1.543.772.772 0 0 0-.002 1.543Zm3.968-1.233a.9.9 0 0 1-.902.9.9.9 0 1 1 .902-.9Zm.901 3.135c.57 0 1.03-.46 1.03-1.028a1.03 1.03 0 0 0-1.03-1.028c-.57 0-1.03.46-1.03 1.028a1.03 1.03 0 0 0 1.03 1.028Zm-2.885-.591a.9.9 0 1 1-1.801-.002.9.9 0 0 1 1.8.002Zm-3.04 2.646a.9.9 0 1 0-.902-.899.9.9 0 0 0 .902.9Zm2.808 1.234a1.03 1.03 0 0 1-1.03 1.028c-.57 0-1.031-.46-1.031-1.028a1.03 1.03 0 0 1 1.03-1.028c.57 0 1.03.46 1.03 1.028ZM14.824 24c.668 0 1.21-.54 1.21-1.208a1.21 1.21 0 0 0-1.21-1.207c-.669 0-1.211.54-1.211 1.207A1.21 1.21 0 0 0 14.823 24Zm-1.572-3.186a1.03 1.03 0 0 1-1.03 1.027 1.03 1.03 0 0 1-1.03-1.027 1.03 1.03 0 0 1 1.03-1.028c.569 0 1.03.46 1.03 1.027Zm3.555.616c.67 0 1.211-.54 1.211-1.207a1.21 1.21 0 0 0-1.21-1.208c-.67 0-1.211.54-1.211 1.208a1.21 1.21 0 0 0 1.21 1.207Zm-8.81-3.083a.772.772 0 1 1-1.544-.002.772.772 0 0 1 1.544.002ZM51.22 4c-4.282 0-7.924 3.68-7.924 8.026 0 4.373 3.667 8.051 7.924 8.026 4.283 0 7.898-3.653 7.898-8.026C59.118 7.653 55.528 4 51.22 4Zm0 1.647c3.335 0 6.129 2.933 6.129 6.38 0 3.473-2.794 6.403-6.129 6.403-3.333 0-6.153-2.93-6.153-6.404 0-3.446 2.82-6.379 6.153-6.379ZM35.833 4.284h1.77v15.51h-1.77V4.283Zm32.362 1.672h-5.204V4.284h12.155v1.672H69.94v13.837h-1.768l.024-13.837Zm10.36 13.837 5.872-13.349 5.823 13.35h1.923L85.736 5.158a1.43 1.43 0 0 0-1.333-.875c-.564 0-1.104.334-1.335.875l-6.436 14.634h1.923Z"/>
  </g>
  <defs>
    <clipPath id="iota-evm-logo-dark_svg__a">
      <path fill="#fff" d="M0 0h124v24H0z"/>
    </clipPath>
  </defs>
</svg>
